!!!COM: Fe/licien David
!!!CNT: Francais
!!!TXO: Francais
!!!OTL: Amour pour Amour
!!!OPR: Les perles d'Orient
!!!ONM: No. 2
!!!ODT: 1866/
!!!LYR: The/ophile Gautier
!!!ENC: Jacob Pegg
!!!YOR: Romantic French Song 1830-1870, David Tunley, ed., New York: Garland Publishing, Inc., 1995
!!NB: Vocal melody and text only encoded.
!!NB: Only first strophe encoded.
**kern	**silbe
*clef G2	*
*k[f#c#g#]	*
*M2/4	*
=5	=5
4r	.
{8cc#	{Dans
8b	le
=6	=6
(4a	bain,
16bq	|
16aq)	|
8g#	sur
8f#	la
=7	=7
8e	dal-
8e}	-le,}
{8c#	{A
8a	mon
=8	=8
4g#	pied
8a	ne/-
(cc#q	-gli-
8b)	|
=9	=9
4a}	-gent}
{8cc#	{J'aime
8b	a-
=10	=10
(8.a	-voir
16b)	|
8cc#	des
8b	san-
=11	=11
8b	-da-
8g#}	-les}
{8e	{De
8ee	cuir
=12	=12
(8.b	jaune
16cc#)	|
8b	et
8d#	d'ar-
=13	=13
4e}	-gent;}
{8b	{En
8b	quit-
=14	=14
(8b	-tant
16ee)	|
16r	.
8f#	ma
8a	bai-
=15	=15
8g#	-gnoi-
8e}	-re,}
{8b	{Il
8b	me
=16	=16
(8b	plai\t
8ee)	|
8f#	qu'u-
8a	-ne
=17	=17
8g#	noi-
8e}	-re}
{8b	{Fas-
8cc#	-se
=18	=18
4ddn	mordre
(16eeq	|
16ddq	|
8cc#)	a\
8b#	l'i-
=19	=19
8cc#	-voi-
8g#}	-re}
{8b	{Mes
8a	che-
=20	=20
4g#	-veux,
8f#	man-
8g#	-teau
=21	=21
4c#}	brun,}
{8cc#	{En
8cc#	ver-
=22	=22
(8.cc#	-sant
16dd#)	|
8ee	l'eau
8dd#	de
=23	=23
8cc#	ro-
8g#}	-se}
{8cc#	{Sur
8cc#	mon
=24	=24
(8.cc#	sein
16dd#)	|
8ee	qu'elle
8dd#	ar-
=25	=25
8cc#	-ro-
8g#}	-se,}
{8cc#	{Com-
8cc#	-me
=26	=26
(8.ff#	l'aube
16ee)	|
8dd	et
8cc#	la
=27	=27
8ee	ro-
8dd}	-se}
{(16b	{Me\-
!!Written me^lent in score, me\lent in text
16cc#)	|
(16dd	-lent
16ee)	|
=28	=28
8ff#	perle
4g#	et
8ee	par-
=29	=29
4a}	-fum.}
4r	.
*-	*-
